img/menu/m-icons-cat8.svg

<svg width="24" height="24" viewBox="0 0 24 24" fill="none" xmlns="http://www.w3.org/2000/svg">
<path fill-rule="evenodd" clip-rule="evenodd" d="M2 6.5H3.04148C3.27952 7.91886 4.5135 9 6 9H17C18.4865 9 19.7205 7.91886 19.9585 6.5H20V10H12C10.8954 10 10 10.8954 10 12V13C8.89543 13 8 13.8954 8 15V20C8 21.1046 8.89543 22 10 22H12C13.1046 22 14 21.1046 14 20V15C14 13.8954 13.1046 13 12 13V12H20C21.1046 12 22 11.1046 22 10V6.5C22 5.39543 21.1046 4.5 20 4.5H19.9585C19.7205 3.08114 18.4865 2 17 2L6 2C4.5135 2 3.27952 3.08114 3.04148 4.5H2V6.5ZM6 4L17 4C17.5523 4 18 4.44772 18 5V6C18 6.55228 17.5523 7 17 7H6C5.44772 7 5 6.55228 5 6V5C5 4.44772 5.44772 4 6 4ZM10 15H12V20H10V15Z" fill="#034899"/>
</svg>

<svg width="24" height="24" fill="none" xmlns="http://www.w3.org/2000/svg"><path fill-rule="evenodd" clip-rule="evenodd" d="M2 6.5h1.041A3 3 0 0 0 6 9h11a3 3 0 0 0 2.959-2.5H20V10h-8a2 2 0 0 0-2 2v1a2 2 0 0 0-2 2v5a2 2 0 0 0 2 2h2a2 2 0 0 0 2-2v-5a2 2 0 0 0-2-2v-1h8a2 2 0 0 0 2-2V6.5a2 2 0 0 0-2-2h-.041A3 3 0 0 0 17 2H6a3 3 0 0 0-2.959 2.5H2v2zM6 4h11a1 1 0 0 1 1 1v1a1 1 0 0 1-1 1H6a1 1 0 0 1-1-1V5a1 1 0 0 1 1-1zm4 11h2v5h-2v-5z" fill="#034899"/></svg>
